X: 127
T:Ribeirana de Ruliña
M:6/8
L:1/8
Q:200
C:Os Morenos de Lavadores
R:Muiñeira
K:C
CEG | c6- | c3 B3 |"~"AG- G4- | G>AG CEG | c6- | c3 {g}c3 |B6-| B6| {c}B
6- | B>cB A3| {C}"~"AG- G4-|
G>AG FEF |G6-| G>AG FGF | E6- | E(3GAG :| |: CEG |cBc dcB |"~"A2G EFG/"F
."c/ |G{B}AG DEF| {C}"~"F2E 
CEG | cBc dcB| "~"A2G EFG |BAG FED |1 {B,}C(3GAG :|2 {B,}C6-| C6-|C6-| C
6-| C(3GAG ||

